X: 1
T: Loch Altan
M: 4/4
L: 1/8
R: reel
K: Edor
EFGA ~B3G | AGBG AGFG | EFGA ~B3G | AFDE FEED |
EFGA ~B3G | AGBG AGFG | EFGA BddB | AFDE FEE2 ||
eB-~B2 GB-~B2 | AGFG EFDF | eB-~B2 GB-~B2 | AFDE FEE2 |
eB-~B2 GB-~B2 | AGFG EFDF | EFGA ~B3G | AFDE FEED ||
